dist/images/clock.svg

<svg width="50" height="50" viewBox="0 0 50 50" fill="none" xmlns="http://www.w3.org/2000/svg">
<circle cx="25" cy="25" r="25" fill="#F6F3EC"/>
<path fill-rule="evenodd" clip-rule="evenodd" d="M25.625 13.75C19.0708 13.75 13.75 19.0708 13.75 25.625C13.75 32.1792 19.0708 37.5 25.625 37.5C32.1792 37.5 37.5 32.1792 37.5 25.625C37.5 19.0708 32.1792 13.75 25.625 13.75ZM26.4167 25.3471C26.4167 24.1256 26.4167 19.2917 26.4167 19.2917C26.4167 18.8547 26.062 18.5 25.625 18.5C25.188 18.5 24.8333 18.8547 24.8333 19.2917V25.3471C24.8333 25.7065 24.956 26.0557 25.1801 26.3367C25.8427 27.164 28.1734 30.0781 28.1734 30.0781C28.4465 30.4193 28.9453 30.4748 29.2865 30.2016C29.6277 29.9285 29.6831 29.4298 29.41 29.0885L26.4167 25.3471Z" fill="#F37021"/>
</svg>

<svg width="50" height="50" fill="none" xmlns="http://www.w3.org/2000/svg"><circle cx="25" cy="25" r="25" fill="#F6F3EC"/><path fill-rule="evenodd" clip-rule="evenodd" d="M25.625 13.75c-6.554 0-11.875 5.32-11.875 11.875 0 6.554 5.32 11.875 11.875 11.875 6.554 0 11.875-5.32 11.875-11.875 0-6.554-5.32-11.875-11.875-11.875Zm.792 11.597v-6.055a.792.792 0 0 0-1.584 0v6.055c0 .36.123.709.347.99.663.827 2.993 3.741 2.993 3.741a.792.792 0 0 0 1.237-.99l-2.993-3.74Z" fill="#F37021"/></svg>
